app/img/solutions-page/breadcrumbs-list-link-icon.svg

<svg width="6" height="11" viewBox="0 0 6 11" fill="none" xmlns="http://www.w3.org/2000/svg">
<path d="M5.91165 5.60178L0.512387 10.7169C0.39479 10.8277 0.205195 10.8277 0.0875978 10.7169C0.0293994 10.6612 0 10.5884 0 10.5157C0 10.4429 0.0293994 10.3701 0.0881982 10.3144L4.97568 5.6842C5.14622 5.46165 5.17524 5.33783 4.97568 5.1158L0.0881982 0.484993C-0.0287991 0.374153 -0.0287991 0.193969 0.0881982 0.0831294C0.205195 -0.0277098 0.395391 -0.0277098 0.512387 0.0831294L5.91165 5.19935C5.93985 5.2255 5.96205 5.25676 5.97705 5.292C6.00765 5.36135 6.00765 5.43979 5.97705 5.50913C5.96145 5.54381 5.93925 5.57564 5.91165 5.60178Z" fill="black"/>
</svg>

<svg width="6" height="11" fill="none" xmlns="http://www.w3.org/2000/svg"><path d="M5.912 5.602l-5.4 5.115a.313.313 0 01-.424 0 .276.276 0 010-.403l4.888-4.63c.17-.222.2-.346 0-.568L.088.485a.274.274 0 010-.402.312.312 0 01.424 0l5.4 5.116a.27.27 0 01.065.093c.03.07.03.148 0 .217a.294.294 0 01-.065.093z" fill="#000"/></svg>
